X: 119009
T: The THISTLE
Q: "Highland Schottische."
R: Schottische.
%R: shottish
B: James Kerr "Merry Melodies" v.1 p.19 s.0 #9
Z: 2017 John Chambers <jc:trillian.mit.edu>
M: C
L: 1/8
K: A
[|\
(vC<E) uE>uC vE2 uE>uF | vA>vBuc>uB B<A A>uG |\
(D<F) F>E F2 F>uc | d>cB>A (G<B) B>uc |\
(C<E) E>C E2 E>F | A>Bc>B B<A A>E |\
(3FGA (3GAB (3ABc (3Bcd | (3cBA (3BAG A2 A2 |]
vc<e e>uc e2 ue>uc | e>f (e<c) A2 A2 |\
d<f f>ug va>vgvf>ve | e>f (e<c) B2 B>c |\
ve>uf e<c e>f e>c | e>f e<A A2 (AE) |\
(3FGA (3GAB (3ABc (3Bcd | (3cBA (3BAG A2 A2 |]

%%sep 1 1 500
%%sep 1 1 500

